X: 1
T: Sonata in Bb
T: f\"ur 2 Alt-Blockfl\"oten und Basso Continuo
T: BWV 1039
C: J.S.Bach (1685-1750)
N: Also published as a sonata for viola da gambo and cembalo.
N: Voice 2 is the gamba part.
M: 12/8
L: 1/16
%%staffsep 60
K: Bb
P: Adagio
V: 1
[|f24- |
V: 2
[|d2fedc d2B2cd/e/ {e}d2fedc dBf2ga/b/ |
V: 3 clef=bass
[|B2d2f2 b2d'2f'2 b2d2f2 B2d2B2 |
%
T: II
P: Allegro ma non tanto
M: 3/4
L: 1/16
%%measurefirst
V: 1
[|z4 z2F2 Bcd2 |
V: 2
[|z12 |
V: 3
[|B4 d4 B4 |
